X: 1
T: Gan Ainm
M: 4/4
L: 1/8
R: reel
K: Dmix
Ad (3ddd dcAB | c2 Bd cAGB | Ad (3ddd dcAB | BcGE ED D2 |
Ad (3ddd dcAB | cBcd cAGE | DE=FG Addc | (3ABc GE ED D2 |
D2 AB AGEF | GE (3EEE cABG | D2 AB AGEG | (3ABc GE ED D2 | 
D2 AB AGEF | GE (3EEE c3 d | edcA AGEG | (3ABc GE ED D2 |
